assets/website/images/home.svg

<svg width="40" height="40" xmlns="http://www.w3.org/2000/svg"><path style="fill:none;stroke:#fff;stroke-width:3;stroke-linecap:round;stroke-linejoin:round" d="m1.5 21.5 18-18 19 18"/><path style="fill:none;stroke:#fff;stroke-width:2;stroke-linecap:round;stroke-linejoin:round" d="M7 22v12c0 2 1.275 3.024 3 3h7v-4c0-2 1-3 3-3s2.958.898 3 3v4h6c2 0 4-1 4-3V22"/><path style="fill:#fff;fill-rule:evenodd;stroke:none;stroke-width:2;stroke-linecap:round;stroke-linejoin:round" d="M20 17a1 1 0 0 1 1 1 1 1 0 0 1-1 1 1 1 0 0 1-1-1 1 1 0 0 1 1-1z"/><path style="fill:#fff;fill-rule:evenodd;stroke:none;stroke-width:1.99999;stroke-linecap:round;stroke-linejoin:round" d="M20 15a3 3 0 0 0-3 3 3 3 0 0 0 3 3 3 3 0 0 0 3-3 3 3 0 0 0-3-3zm0 1a2 2 0 0 1 2 2 2 2 0 0 1-2 2 2 2 0 0 1-2-2 2 2 0 0 1 2-2z"/><path style="opacity:.6;fill:#fff;fill-rule:evenodd;stroke-linecap:round;stroke-linejoin:round" d="M30 7c-.554 0-1 .446-1 1v.37l3 2.84V8c0-.554-.446-1-1-1h-1z"/></svg>

<?xml version="1.0" encoding="UTF-8" standalone="no"?>
<svg
   width="40"
   height="40"
   version="1.1"
   id="svg4"
   sodipodi:docname="home.svg"
   inkscape:version="1.2 (1:1.2.1+202207142221+cd75a1ee6d)"
   xmlns:inkscape="http://www.inkscape.org/namespaces/inkscape"
   xmlns:sodipodi="http://sodipodi.sourceforge.net/DTD/sodipodi-0.dtd"
   xmlns="http://www.w3.org/2000/svg"
   xmlns:svg="http://www.w3.org/2000/svg">
  <defs
     id="defs8" />
  <sodipodi:namedview
     id="namedview6"
     pagecolor="#333333"
     bordercolor="#666666"
     borderopacity="1.0"
     inkscape:showpageshadow="2"
     inkscape:pageopacity="0"
     inkscape:pagecheckerboard="0"
     inkscape:deskcolor="#d1d1d1"
     showgrid="true"
     inkscape:zoom="16.68772"
     inkscape:cx="24.628889"
     inkscape:cy="10.456791"
     inkscape:window-width="1920"
     inkscape:window-height="1016"
     inkscape:window-x="0"
     inkscape:window-y="0"
     inkscape:window-maximized="1"
     inkscape:current-layer="svg4">
    <inkscape:grid
       type="xygrid"
       id="grid133"
       color="#9999ff"
       opacity="0.1254902"
       empcolor="#9999ff"
       empopacity="0.25098039" />
  </sodipodi:namedview>
  <path
     style="fill:none;stroke:#ffffff;stroke-width:3;stroke-linecap:round;stroke-linejoin:round"
     d="m 1.5,21.5 18,-18 19,18"
     id="path302"
     sodipodi:nodetypes="ccc" />
  <path
     style="fill:none;stroke:#ffffff;stroke-width:2;stroke-linecap:round;stroke-linejoin:round"
     d="m 7,22 v 12 c 0,2 1.275282,3.02364 3,3 h 7 v -4 c 0,-2 1,-3 3,-3 2,0 2.958366,0.898066 3,3 v 4 h 6 c 2,0 4,-1 4,-3 v -12"
     id="path1008"
     sodipodi:nodetypes="ccccccccccc" />
  <path
     style="fill:#ffffff;fill-rule:evenodd;stroke:none;stroke-width:2;stroke-linecap:round;stroke-linejoin:round"
     d="m 20,17 a 1,1 0 0 1 1,1 1,1 0 0 1 -1,1 1,1 0 0 1 -1,-1 1,1 0 0 1 1,-1 z"
     id="path5606" />
  <path
     id="path1130"
     style="fill:#ffffff;fill-rule:evenodd;stroke:none;stroke-width:1.99999;stroke-linecap:round;stroke-linejoin:round"
     d="M 20 15 A 3 3 0 0 0 17 18 A 3 3 0 0 0 20 21 A 3 3 0 0 0 23 18 A 3 3 0 0 0 20 15 z M 20 16 A 2 2 0 0 1 22 18 A 2 2 0 0 1 20 20 A 2 2 0 0 1 18 18 A 2 2 0 0 1 20 16 z " />
  <path
     id="rect3267"
     style="opacity:0.6;fill:#ffffff;fill-rule:evenodd;stroke-linecap:round;stroke-linejoin:round"
     d="M 30 7 C 29.446001 7 29 7.4460006 29 8 L 29 8.3691406 L 32 11.210938 L 32 8 C 32 7.4460006 31.553999 7 31 7 L 30 7 z " />
</svg>
